src/assets/selectIcons/gemma_1.svg

<svg xmlns="http://www.w3.org/2000/svg" viewBox="0 0 512 512"><path d="M0 0h512v512H0z"/><path fill="#fff" d="M247 25.076L107.053 130.004l64.996 32.486L247 106.297v-81.22zm18 0v81.22l74.95 56.194 65-32.488L265 25.076zm9.277 22.307l36.63 26.437c-25.125-4.207-29.74 9.2-37.348 28.8l.717-55.237zm-37.79 3.926l-.274 33.362c-22.052 1.182-56.787 14.423-107.893 43.99L236.488 51.31zM256 122.044l-74 55.48v156.948l74 55.482 74-55.482V177.527l-74-55.482zm4.215 17.67c-37.503 33.84-60.642 164.833-63.65 199.094l-.35-151.095 64-48zM99 146.1v219.8l65-32.488V178.588L99 146.1zm314 0l-65 32.488v154.824l65 32.488V146.1zm-301.352 23.31l40.473 20.83c-46.28 38.757-30.79 122.693-41.876 162.572l1.404-183.402zm60.4 180.1l-64.995 32.486L247 486.924v-81.22l-74.95-56.194zm167.903 0L265 405.703v81.22l139.947-104.927-64.996-32.486zm-169.415 17.172c-19.594 16.282-16.745 24.365 4.477 54.412l-44.246-38.018 39.77-16.394z"/></svg>

<?xml version="1.0" encoding="UTF-8" standalone="no"?>
<!DOCTYPE svg PUBLIC "-//W3C//DTD SVG 1.1//EN" "http://www.w3.org/Graphics/SVG/1.1/DTD/svg11.dtd">
<svg width="100%" height="100%" viewBox="0 0 512 512" version="1.1" xmlns="http://www.w3.org/2000/svg" xmlns:xlink="http://www.w3.org/1999/xlink" xml:space="preserve" xmlns:serif="http://www.serif.com/" style="fill-rule:evenodd;clip-rule:evenodd;stroke-linejoin:round;stroke-miterlimit:2;">
    <rect x="0" y="0" width="512" height="512" style="fill-rule:nonzero;"/>
    <path d="M247,25.076L107.053,130.004L172.049,162.49L247,106.297L247,25.076ZM265,25.076L265,106.296L339.95,162.49L404.95,130.002L265,25.076ZM274.277,47.383L310.907,73.82C285.782,69.613 281.167,83.02 273.559,102.62L274.276,47.383L274.277,47.383ZM236.487,51.309L236.213,84.671C214.161,85.853 179.426,99.094 128.32,128.661L236.488,51.31L236.487,51.309ZM256,122.044L182,177.524L182,334.472L256,389.954L330,334.472L330,177.527L256,122.045L256,122.044ZM260.215,139.714C222.712,173.554 199.573,304.547 196.565,338.808L196.215,187.713L260.215,139.713L260.215,139.714ZM99,146.1L99,365.9L164,333.412L164,178.588L99,146.1ZM413,146.1L348,178.588L348,333.412L413,365.9L413,146.1ZM111.648,169.41L152.121,190.24C105.841,228.997 121.331,312.933 110.245,352.812L111.649,169.41L111.648,169.41ZM172.048,349.51L107.053,381.996L247,486.924L247,405.704L172.05,349.51L172.048,349.51ZM339.951,349.51L265,405.703L265,486.923L404.947,381.996L339.951,349.51ZM170.536,366.682C150.942,382.964 153.791,391.047 175.013,421.094L130.767,383.076L170.537,366.682L170.536,366.682Z" style="fill:url(#_Linear1);fill-rule:nonzero;"/>
    <defs>
        <linearGradient id="_Linear1" x1="0" y1="0" x2="1" y2="0" gradientUnits="userSpaceOnUse" gradientTransform="matrix(314,0,0,461.848,99,256)"><stop offset="0" style="stop-color:rgb(78,206,78);stop-opacity:1"/><stop offset="1" style="stop-color:rgb(136,75,192);stop-opacity:1"/></linearGradient>
    </defs>
</svg>
